tools/download-figma-icons/icons/outlined-large/district-heating.svg

<svg width="64" height="64" viewBox="0 0 64 64" fill="none" xmlns="http://www.w3.org/2000/svg">
<path d="M21 19.2497C21 20.8297 20.38 21.5897 19.59 22.5397C19.06 23.1797 19.16 24.1197 19.79 24.6497C20.07 24.8797 20.41 24.9897 20.74 24.9897C21.17 24.9897 21.6 24.7997 21.9 24.4397C22.78 23.3697 23.99 21.8997 23.99 19.2397C23.99 16.5797 22.83 15.1597 21.9 14.0197C21.08 13.0297 20.49 12.3097 20.49 10.7297C20.49 9.14971 20.99 8.53971 21.81 7.54971L21.9 7.43971C22.43 6.79971 22.33 5.85971 21.69 5.32971C21.05 4.79971 20.1 4.89971 19.58 5.53971L19.49 5.64971C18.55 6.78971 17.49 8.07971 17.49 10.7397C17.49 13.3997 18.65 14.8097 19.58 15.9397C20.4 16.9397 20.99 17.6497 20.99 19.2497H21Z" fill="black"/>
<path d="M32.5 19.2493C32.5 20.6993 31.9 21.4193 30.91 22.4693C30.34 23.0693 30.37 24.0193 30.97 24.5893C31.26 24.8593 31.63 24.9993 32 24.9993C32.4 24.9993 32.8 24.8393 33.09 24.5293C34.11 23.4493 35.5 21.9693 35.5 19.2593C35.5 16.5493 34.16 15.1093 33.09 13.9693C32.17 12.9893 31.5 12.2793 31.5 10.7493C31.5 9.21927 32.06 8.62927 32.99 7.63927L33.1 7.52927C33.67 6.92927 33.64 5.97927 33.03 5.40927C32.43 4.83927 31.48 4.86927 30.91 5.47927L30.81 5.58927C29.73 6.73927 28.51 8.03927 28.51 10.7493C28.51 13.4593 29.84 14.8793 30.91 16.0193C31.84 17.0093 32.51 17.7193 32.51 19.2593L32.5 19.2493Z" fill="black"/>
<path d="M43.5 19.2493C43.5 20.6993 42.9 21.4193 41.91 22.4693C41.34 23.0693 41.37 24.0193 41.97 24.5893C42.26 24.8593 42.63 24.9993 43 24.9993C43.4 24.9993 43.8 24.8393 44.09 24.5293C45.11 23.4493 46.5 21.9693 46.5 19.2593C46.5 16.5493 45.16 15.1093 44.09 13.9693C43.17 12.9893 42.5 12.2793 42.5 10.7493C42.5 9.21927 43.06 8.62927 43.99 7.63927L44.1 7.52927C44.67 6.92927 44.64 5.97927 44.03 5.40927C43.43 4.83927 42.48 4.86927 41.91 5.47927L41.81 5.58927C40.73 6.73927 39.51 8.03927 39.51 10.7493C39.51 13.4593 40.84 14.8793 41.91 16.0193C42.84 17.0093 43.51 17.7193 43.51 19.2593L43.5 19.2493Z" fill="black"/>
<path d="M61.3 29H57.7C56.21 29 55 30.21 55 31.71V33.5H9V31.71C9 30.22 7.79 29 6.3 29H2.7C1.21 29 0 30.21 0 31.71V57.29C0 58.78 1.21 60 2.7 60H6.3C7.79 60 9 58.79 9 57.29V55.5H55V57.29C55 58.78 56.21 60 57.7 60H61.3C62.79 60 64 58.79 64 57.29V31.71C64 30.22 62.79 29 61.3 29ZM6 57H3V32H6V57ZM9 52.5V36.5H55V52.5H9ZM61 57H58V32H61V57Z" fill="black"/>
</svg>

<svg width="64" height="64" viewBox="0 0 64 64" fill="none" xmlns="http://www.w3.org/2000/svg"><path d="M21 19.25c0 1.58-.62 2.34-1.41 3.29-.53.64-.43 1.58.2 2.11a1.497 1.497 0 0 0 2.11-.21c.88-1.07 2.09-2.54 2.09-5.2s-1.16-4.08-2.09-5.22c-.82-.99-1.41-1.71-1.41-3.29s.5-2.19 1.32-3.18l.09-.11c.53-.64.43-1.58-.21-2.11-.64-.53-1.59-.43-2.11.21l-.09.11c-.94 1.14-2 2.43-2 5.09 0 2.66 1.16 4.07 2.09 5.2.82 1 1.41 1.71 1.41 3.31H21Zm11.5 0c0 1.45-.6 2.17-1.59 3.22a1.5 1.5 0 0 0 2.18 2.06c1.02-1.08 2.41-2.56 2.41-5.27 0-2.71-1.34-4.15-2.41-5.29-.92-.98-1.59-1.69-1.59-3.22 0-1.53.56-2.12 1.49-3.11l.11-.11c.57-.6.54-1.55-.07-2.12-.6-.57-1.55-.54-2.12.07l-.1.11c-1.08 1.15-2.3 2.45-2.3 5.16s1.33 4.13 2.4 5.27c.93.99 1.6 1.7 1.6 3.24l-.01-.01Zm11 0c0 1.45-.6 2.17-1.59 3.22a1.5 1.5 0 0 0 2.18 2.06c1.02-1.08 2.41-2.56 2.41-5.27 0-2.71-1.34-4.15-2.41-5.29-.92-.98-1.59-1.69-1.59-3.22 0-1.53.56-2.12 1.49-3.11l.11-.11c.57-.6.54-1.55-.07-2.12-.6-.57-1.55-.54-2.12.07l-.1.11c-1.08 1.15-2.3 2.45-2.3 5.16s1.33 4.13 2.4 5.27c.93.99 1.6 1.7 1.6 3.24l-.01-.01ZM61.3 29h-3.6c-1.49 0-2.7 1.21-2.7 2.71v1.79H9v-1.79A2.71 2.71 0 0 0 6.3 29H2.7C1.21 29 0 30.21 0 31.71v25.58A2.71 2.71 0 0 0 2.7 60h3.6C7.79 60 9 58.79 9 57.29V55.5h46v1.79A2.71 2.71 0 0 0 57.7 60h3.6c1.49 0 2.7-1.21 2.7-2.71V31.71A2.71 2.71 0 0 0 61.3 29ZM6 57H3V32h3v25Zm3-4.5v-16h46v16H9ZM61 57h-3V32h3v25Z" fill="currentColor"/></svg>
